packages/foundations/assets/icons/functional/images/transportation/scooter_24.svg

<svg width="24" height="24" viewBox="0 0 24 24" fill="none" xmlns="http://www.w3.org/2000/svg">
<g clip-path="url(#clip0_187_934)">
<path fill-rule="evenodd" clip-rule="evenodd" d="M16.672 5C17.9149 5 18.9186 6.01109 19 7.24496L19.0054 10C19.0054 10.2049 18.9425 10.4037 18.8268 10.5704L14.283 15.6663C14.1204 15.8483 13.9107 16 13.5373 16C13.2884 16 12.1093 16 9.99992 16C9.99992 17.657 8.65687 19 6.99992 19C5.40215 19 4.00624 17.7118 3.99992 16H3.00012C2.48729 16 2.06461 15.614 2.00685 15.1166L2.00012 13.6667C2.00012 11.707 3.57211 9.99962 5.66701 10L8.89992 9.99962L8.63372 9.00392L6.00012 9.00484C5.44474 9.00484 5.00554 8.51304 5.00554 8.0002C5.00554 7.48737 5.47994 7.02262 5.99992 7.02262L8.83745 7.03011C9.53322 7.03011 10.1443 7.46674 10.3894 8.10616L12 14H13.005L17.0049 9.617L17.0054 7.40723C17.0054 7.21448 16.9299 6.99814 16.672 6.99814C16.1242 6.99814 15.4576 6.99814 14.672 6.99814C14.1198 6.99814 13.672 6.5749 13.672 6.02262C13.672 5.50978 14.1236 5 14.672 5H16.672ZM18.9999 13C20.6569 13 21.9999 14.343 21.9999 16C21.9999 17.657 20.6569 19 18.9999 19C17.343 19 15.9999 17.657 15.9999 16C15.9999 14.343 17.343 13 18.9999 13ZM5.99992 16C5.99992 16.5524 6.44754 17 6.99992 17C7.51285 17 7.99992 16.6156 7.99992 16H5.99992ZM18.9999 15C18.4475 15 17.9999 15.4476 17.9999 16C17.9999 16.5524 18.4475 17 18.9999 17C19.5523 17 19.9999 16.5524 19.9999 16C19.9999 15.4476 19.5523 15 18.9999 15ZM9.44992 12H5.66701C4.79494 12 4.07917 12.6698 4.00624 13.5229L3.99992 14H9.99992L9.44992 12Z" fill="#1A1C1F"/>
</g>
<defs>
<clipPath id="clip0_187_934">
<rect width="24" height="24" fill="white"/>
</clipPath>
</defs>
</svg>

<svg xmlns="http://www.w3.org/2000/svg" width="24" height="24" fill="none"><g clip-path="url(#a)"><path fill="#1A1C1F" fill-rule="evenodd" d="M16.672 5C17.915 5 18.919 6.011 19 7.245L19.005 10a1 1 0 0 1-.178.57l-4.544 5.096a.92.92 0 0 1-.746.334H10a3 3 0 1 1-6 0H3a1 1 0 0 1-.993-.883L2 13.667C2 11.707 3.572 10 5.667 10H8.9l-.266-.996H6c-.555 0-.994-.491-.994-1.004s.474-.977.994-.977l2.837.007c.696 0 1.307.437 1.552 1.076L12 14h1.005l4-4.383v-2.21c0-.193-.075-.409-.333-.409h-2c-.552 0-1-.423-1-.975 0-.513.452-1.023 1-1.023zM19 13a3 3 0 1 1 0 6 3 3 0 0 1 0-6M6 16a1 1 0 0 0 1 1c.513 0 1-.384 1-1zm13-1a1 1 0 1 0 0 2 1 1 0 0 0 0-2m-9.55-3H5.667c-.872 0-1.588.67-1.66 1.523L4 14h6z" clip-rule="evenodd"/></g><defs><clipPath id="a"><path fill="#fff" d="M0 0h24v24H0z"/></clipPath></defs></svg>
